img/whatsapp.svg

<?xml version="1.0" encoding="UTF-8"?><svg id="a" xmlns="http://www.w3.org/2000/svg" viewBox="0 0 18 18"><path id="b" d="m9,0C4.03,0,0,4.03,0,9c0,1.67.46,3.24,1.26,4.59l-1.26,4.41,4.41-1.26c1.35.8,2.92,1.26,4.59,1.26,4.97,0,9-4.03,9-9S13.97,0,9,0Zm4.825,12.442c-.211.585-1.212,1.129-1.662,1.179-.451.051-.872.212-2.955-.614-2.504-.998-4.086-3.577-4.206-3.739-.12-.161-1.002-1.34-1.002-2.559s.631-1.815.861-2.066c.23-.252.5-.312.661-.312.17,0,.33,0,.481.01.17,0,.371.01.551.423.22.494.691,1.713.751,1.824.06.121.1.272.02.433-.091.161-.13.272-.25.413s-.261.323-.371.433c-.13.121-.25.252-.11.504.151.242.641,1.058,1.372,1.713.942.847,1.733,1.109,1.983,1.229.24.121.39.101.53-.06.15-.161.621-.715.781-.967.16-.242.32-.202.55-.121.231.081,1.432.685,1.683.806.24.131.411.191.471.292s.06.605-.14,1.179h0Z" fill="#529374" stroke-width="0"/></svg>

<?xml version="1.0" encoding="utf-8"?>
<!-- Generator: Adobe Illustrator 28.0.0, SVG Export Plug-In . SVG Version: 6.00 Build 0)  -->
<svg version="1.1" id="a" xmlns="http://www.w3.org/2000/svg" xmlns:xlink="http://www.w3.org/1999/xlink" x="0px" y="0px"
	 width="18px" height="18px" viewBox="0 0 18 18" style="enable-background:new 0 0 18 18;" xml:space="preserve">
<style type="text/css">
	.st0{fill:#006400;}
</style>
<path id="b" class="st0" d="M9,0C4,0,0,4,0,9c0,1.7,0.5,3.2,1.3,4.6L0,18l4.4-1.3C5.8,17.5,7.3,18,9,18c5,0,9-4,9-9S14,0,9,0z
	 M13.8,12.4c-0.2,0.6-1.2,1.1-1.7,1.2c-0.5,0.1-0.9,0.2-3-0.6C6.7,12,5.1,9.4,5,9.3C4.9,9.1,4,7.9,4,6.7s0.6-1.8,0.9-2.1
	c0.2-0.3,0.5-0.3,0.7-0.3c0.2,0,0.3,0,0.5,0c0.2,0,0.4,0,0.6,0.4c0.2,0.5,0.7,1.7,0.8,1.8c0.1,0.1,0.1,0.3,0,0.4
	C7.2,7.2,7.2,7.3,7.1,7.4S6.8,7.8,6.7,7.9C6.6,8,6.5,8.1,6.6,8.4C6.7,8.6,7.2,9.4,8,10.1c0.9,0.8,1.7,1.1,2,1.2
	c0.2,0.1,0.4,0.1,0.5-0.1c0.1-0.2,0.6-0.7,0.8-1c0.2-0.2,0.3-0.2,0.6-0.1c0.2,0.1,1.4,0.7,1.7,0.8c0.2,0.1,0.4,0.2,0.5,0.3
	S14,11.9,13.8,12.4L13.8,12.4L13.8,12.4z"/>
</svg>
